icons/intel.svg

<!--
  - The MIT License (MIT)
  -
  - Copyright (c) 2015-2024 Elior "Mallowigi" Boukhobza
  -
  - Permission is hereby granted, free of charge, to any person obtaining a copy
  - of this software and associated documentation files (the "Software"), to deal
  - in the Software without restriction, including without limitation the rights
  - to use, copy, modify, merge, publish, distribute, sublicense, and/or sell
  - copies of the Software, and to permit persons to whom the Software is
  - furnished to do so, subject to the following conditions:
  -
  - The above copyright notice and this permission notice shall be included in all
  - copies or substantial portions of the Software.
  -
  - THE SOFTWARE IS PROVIDED "AS IS", WITHOUT WARRANTY OF ANY KIND, EXPRESS OR
  - IMPLIED, INCLUDING BUT NOT LIMITED TO THE WARRANTIES OF MERCHANTABILITY,
  - FITNESS FOR A PARTICULAR PURPOSE AND NONINFRINGEMENT. IN NO EVENT SHALL THE
  - AUTHORS OR COPYRIGHT HOLDERS BE LIABLE FOR ANY CLAIM, DAMAGES OR OTHER
  - LIABILITY, WHETHER IN AN ACTION OF CONTRACT, TORT OR OTHERWISE, ARISING FROM,
  - OUT OF OR IN CONNECTION WITH THE SOFTWARE OR THE USE OR OTHER DEALINGS IN THE
  - SOFTWARE.
  -
  -->

<svg xmlns="http://www.w3.org/2000/svg" version="1.1" viewBox="0 0 512 512" width="16px" height="16px">
  <path fill="#FF8A65" data-iconColor="Assembly Intel"
        d="M379.1151733,236.470459l-39.392334-0.000061l0.0001221-61.9559326l39.3922729,0.000061L379.1151733,236.470459z M0,414.3250732l72.8810425,4.5722656l0.000061-34.1003418L0,388.7005615V414.3250732z M379.1154175,76.3370972h-39.3922729l-0.0001221,61.9559326h39.3922729L379.1154175,76.3370972z M460.0201416,94.1687622l-72.8810425-3.9036255l-0.000061,34.1002808l72.8810425-4.5721436L460.0201416,94.1687622z M0,316.1477051l72.8811035,4.5722656v-34.1003418L0,290.5231934V316.1477051z M460.0200806,192.3461304l-72.8810425-3.9036255l-0.000061,34.1003418l72.8810425-4.5722046L460.0200806,192.3461304z M81.5733032,334.6477661h43.9456177l0.000061-61.9558716l-43.9456177-0.000061L81.5733032,334.6477661z M0.000061,217.9703369l72.8811035,4.5722656v-34.1003418L0.000061,192.3458252V217.9703369z M81.5734253,236.4703979h43.9456177l0.000061-61.9558716l-43.9456177-0.000061L81.5734253,236.4703979z M330.9854736,248.6749878l0.000061-185.7598877c0-10.8082275-8.7617798-19.5700073-19.5699463-19.5700073l-158.8244019-0.0001221c-10.8082275,0-19.5700073,8.7617798-19.5700073,19.5700073l-0.0001831,386.1699219c0,10.8081665,8.7617798,19.5699463,19.5699463,19.5700073h66.1502686C112.2396011,400.2390137,176.4255219,278.0067139,330.9854736,248.6749878z M81.5735474,138.2930298h43.9456177l0.000061-61.9558716l-43.9456177-0.000061L81.5735474,138.2930298z M81.5733032,432.8251343l43.9456177,0.000061l0.000061-61.9559326l-43.9456177-0.000061L81.5733032,432.8251343z M0.0001221,119.7929688l72.8811035,4.5722656V90.2648926L0.0001831,94.168457L0.0001221,119.7929688z M296.7877502,345.3741455c4.9028015,0,6.9354248,2.4162292,6.9354248,6.3428955v46.0834961h16.6586609v-46.1698608c0-9.3737488-4.9851379-19.6935425-19.6192322-19.6935425l-34.4541626-0.0342102v65.8975525h16.6887817v-52.4263916L296.7877502,345.3741455z M408.5940247,358.6483765h-25.6749268C382.8916931,340.5348511,408.9941406,339.268158,408.5940247,358.6483765z M397.2016602,330.7861938c-17.5403748,0-30.8890076,12.2800903-30.8890076,33.9721069c0,25.3876953,15.2888489,34.0986633,31.2646179,34.0986633c12.2017517,0,19.1271362-3.9567871,25.7271423-10.4724426l-10.3077393-9.8417358c-10.7192688,11.4244995-30.5825806,7.1174011-30.0775757-8.5362244h42.3335571C426.7617798,345.9768066,416.3012085,331.1411438,397.2016602,330.7861938z M362.0847473,397.7181091V383.815155h-6.7787781c-3.9748535,0-5.7825317-2.1250305-5.7825317-5.9532776V345.374054h12.5612488v-13.4711304h-12.5612488V313.948761h-16.6627197v64.9575806c0,9.3476562,5.7684937,18.8117676,19.3641663,18.8117676H362.0847473z M251.4594421,306.8345947h-16.8032684v15.9617004h16.8032684V306.8345947z M251.5018463,331.9029236h-16.845459l-0.0181885,48.9416199c0,8.807373,4.2801514,16.4397278,16.8635254,17.6488647L251.5018463,331.9029236z M451.7732544,304.5629578h-16.8173218v74.8957214c0,8.7952881,4.2600708,16.4156189,16.8173218,17.62677V304.5629578z M463.2017517,397.7422485v-17.7432861c22.7746277-13.5615234,35.5267029-37.1556396,31.5116882-59.785614c-12.0009155-68.438324-143.7216797-68.7195129-236.5976562-20.9890442v-6.2485046c92.9703674-56.5980835,237.2082214-51.8941345,252.4488831,22.4110718C518.7272949,355.1937256,490.6140442,387.7136841,463.2017517,397.7422485z M456.9632568,410.6128235v24.5882874c-31.5337524,17.3074036-76.8921509,28.4506836-111.5471497,31.8330078c-87.5895691,8.5121155-144.9749908-17.1206055-155.6984863-62.352478c-8.4016418-35.2736206,6.192276-65.1262512,33.0823364-88.7062683v8.7029114c-14.9373627,16.2750549-26.1971283,42.4761658-21.6177063,67.1930237c9.3556976,50.1387024,76.2193298,59.452179,140.3835144,53.5210266C381.0010376,441.7408447,428.349884,427.6510925,456.9632568,410.6128235z"/>
</svg>

<svg xmlns="http://www.w3.org/2000/svg" viewBox="0 0 512 512"><path fill="#ff8a65" d="M379.115 236.47h-39.392v-61.956h39.392zM0 414.325l72.881 4.572v-34.1L0 388.701zM379.115 76.337h-39.392v61.956h39.392zM460.02 94.17l-72.88-3.904-.001 34.1 72.881-4.572zM0 316.148l72.881 4.572v-34.1L0 290.523zm460.02-123.802-72.881-3.903v34.1l72.881-4.572zM81.573 334.648h43.946v-61.956H81.573zM0 217.97l72.881 4.573v-34.1l-72.88 3.903zm81.573 18.5h43.946v-61.955H81.573zm249.412 12.205V62.915c0-10.808-8.761-19.57-19.57-19.57H152.592c-10.808 0-19.57 8.762-19.57 19.57v386.17c0 10.808 8.762 19.57 19.57 19.57h66.15c-106.501-68.416-42.315-190.648 112.244-219.98M81.574 138.293h43.945V76.337H81.574zm0 294.532h43.945V370.87H81.573zM0 119.793l72.881 4.572v-34.1L.001 94.168zm296.788 225.581c4.903 0 6.935 2.416 6.935 6.343v46.084h16.659v-46.17c0-9.374-4.985-19.694-19.62-19.694l-34.454-.034V397.8h16.69v-52.426zm111.806 13.274h-25.675c-.027-18.113 26.075-19.38 25.675 0m-11.392-27.862c-17.54 0-30.89 12.28-30.89 33.972 0 25.388 15.29 34.099 31.265 34.099 12.202 0 19.127-3.957 25.727-10.472l-10.307-9.842c-10.72 11.424-30.583 7.117-30.078-8.536h42.334c1.509-24.03-8.952-38.866-28.051-39.22m-35.117 66.932v-13.903h-6.779c-3.975 0-5.783-2.125-5.783-5.953v-32.488h12.562v-13.471h-12.562V313.95h-16.662v64.957c0 9.348 5.768 18.812 19.364 18.812zm-110.626-90.883h-16.803v15.961h16.803zm.043 25.068h-16.846l-.018 48.942c0 8.807 4.28 16.44 16.864 17.648zm200.271-27.34h-16.817v74.896c0 8.795 4.26 16.415 16.817 17.626zm11.429 93.18V380c22.774-13.562 35.526-37.156 31.511-59.786-12-68.438-143.721-68.72-236.597-20.989v-6.248c92.97-56.598 237.208-51.894 252.449 22.41 8.162 39.808-19.951 72.328-47.363 82.356m-6.239 12.87V435.2c-31.533 17.308-76.892 28.45-111.547 31.833-87.59 8.512-144.975-17.12-155.698-62.352-8.402-35.274 6.192-65.127 33.082-88.707v8.703c-14.937 16.275-26.197 42.476-21.618 67.193 9.356 50.139 76.22 59.452 140.384 53.521 39.435-3.651 86.784-17.74 115.397-34.78" data-iconColor="Assembly Intel"/></svg>
